svg/emoji_u1f6a7.svg

<svg enable-background="new 0 0 128 128" viewBox="0 0 128 128" xmlns="http://www.w3.org/2000/svg" xmlns:xlink="http://www.w3.org/1999/xlink"><path d="m24.24 124h-7.94c-1.66 0-3-1.34-3-3v-43.73h13.94v43.73c0 1.66-1.35 3-3 3z" fill="#BDBDBD"/><path d="m112.51 124h-7.94c-1.66 0-3-1.34-3-3v-43.73h13.94v43.73c0 1.66-1.34 3-3 3z" fill="#BDBDBD"/><g opacity=".2"><path d="m25.24 79.27v41.73c0 0.55-0.45 1-1 1h-7.94c-0.55 0-1-0.45-1-1v-41.73h9.94m2-2h-13.95v43.73c0 1.66 1.34 3 3 3h7.94c1.66 0 3-1.34 3-3v-43.73h0.01z" fill="#424242"/></g><g opacity=".2"><path d="m113.51 79.27v41.73c0 0.55-0.45 1-1 1h-7.94c-0.55 0-1-0.45-1-1v-41.73h9.94m2-2h-13.94v43.73c0 1.66 1.34 3 3 3h7.94c1.66 0 3-1.34 3-3v-43.73z" fill="#424242"/></g><linearGradient id="c" x1="64" x2="64" y1="39.192" y2="81.02" gradientUnits="userSpaceOnUse"><stop stop-color="#FFEE58" offset=".0256"/><stop stop-color="#FDD642" offset=".4867"/><stop stop-color="#FBC02D" offset="1"/></linearGradient><path d="m120 82.17h-112c-2.21 0-4-1.79-4-4v-33.54c0-2.21 1.79-4 4-4h112c2.21 0 4 1.79 4 4v33.54c0 2.21-1.79 4-4 4z" fill="url(#c)"/><circle cx="20.35" cy="31.4" r="9.04" fill="#BDBDBD"/><circle cx="20.35" cy="31.4" r="6.73" fill="#F44336"/><circle cx="108.54" cy="31.4" r="9.04" fill="#BDBDBD"/><circle cx="108.54" cy="31.4" r="6.73" fill="#F44336"/><defs><path id="b" d="m120 82.17h-112c-2.21 0-4-1.79-4-4v-33.54c0-2.21 1.79-4 4-4h112c2.21 0 4 1.79 4 4v33.54c0 2.21-1.79 4-4 4z"/></defs><clipPath id="a"><use xlink:href="#b"/></clipPath><g clip-path="url(#a)"><polygon points="-15.62 88.64 -33.58 88.64 -2.13 34.16 15.84 34.16"/><polygon points="20.82 88.64 2.85 88.64 34.31 34.16 52.27 34.16"/><polygon points="57.26 88.64 39.29 88.64 70.74 34.16 88.71 34.16"/><polygon points="93.69 88.64 75.73 88.64 107.18 34.16 125.15 34.16"/><polygon points="130.13 88.64 112.16 88.64 143.62 34.16 161.58 34.16"/></g><g opacity=".2"><path d="m120 43.63c0.55 0 1 0.45 1 1v33.54c0 0.55-0.45 1-1 1h-112c-0.55 0-1-0.45-1-1v-33.54c0-0.55 0.45-1 1-1h112m0-3h-112c-2.21 0-4 1.79-4 4v33.54c0 2.21 1.79 4 4 4h112c2.21 0 4-1.79 4-4v-33.54c0-2.2-1.79-4-4-4z" fill="#424242"/></g></svg>

<svg width="128" height="128" style="enable-background:new 0 0 128 128;" xmlns="http://www.w3.org/2000/svg" xmlns:xlink="http://www.w3.org/1999/xlink">
  <g>
    <path d="M24.24,124h-7.94c-1.66,0-3-1.34-3-3V77.27h13.94V121C27.24,122.66,25.89,124,24.24,124z" style="fill:#BDBDBD;"/>
    <path d="M112.51,124h-7.94c-1.66,0-3-1.34-3-3V77.27h13.94V121C115.51,122.66,114.17,124,112.51,124z" style="fill:#BDBDBD;"/>
    <g style="opacity:0.2;">
      <path d="M25.24,79.27V121c0,0.55-0.45,1-1,1h-7.94c-0.55,0-1-0.45-1-1V79.27H25.24 M27.24,77.27H13.29V121 c0,1.66,1.34,3,3,3h7.94c1.66,0,3-1.34,3-3V77.27L27.24,77.27z" style="fill:#424242;"/>
    </g>
    <g style="opacity:0.2;">
      <path d="M113.51,79.27V121c0,0.55-0.45,1-1,1h-7.94c-0.55,0-1-0.45-1-1V79.27H113.51 M115.51,77.27h-13.94 V121c0,1.66,1.34,3,3,3h7.94c1.66,0,3-1.34,3-3V77.27L115.51,77.27z" style="fill:#424242;"/>
    </g>
    <linearGradient id="SVGID_1_" gradientUnits="userSpaceOnUse" x1="64" x2="64" y1="39.1923" y2="81.0202">
      <stop offset="0.0256" style="stop-color:#FFEE58"/>
      <stop offset="0.4867" style="stop-color:#FDD642"/>
      <stop offset="1" style="stop-color:#FBC02D"/>
    </linearGradient>
    <path d="M120,82.17H8c-2.21,0-4-1.79-4-4V44.63c0-2.21,1.79-4,4-4h112c2.21,0,4,1.79,4,4v33.54 C124,80.38,122.21,82.17,120,82.17z" style="fill:url(#SVGID_1_);"/>
    <circle cx="20.35" cy="31.4" r="9.04" style="fill:#BDBDBD;"/>
    <circle cx="20.35" cy="31.4" r="6.73" style="fill:#F44336;"/>
    <circle cx="108.54" cy="31.4" r="9.04" style="fill:#BDBDBD;"/>
    <circle cx="108.54" cy="31.4" r="6.73" style="fill:#F44336;"/>
    <g>
      <defs>
        <path id="SVGID_2_" d="M120,82.17H8c-2.21,0-4-1.79-4-4V44.63c0-2.21,1.79-4,4-4h112c2.21,0,4,1.79,4,4v33.54 C124,80.38,122.21,82.17,120,82.17z"/>
      </defs>
      <clipPath id="SVGID_3_">
        <use style="overflow:visible;" xlink:href="#SVGID_2_"/>
      </clipPath>
      <g style="clip-path:url(#SVGID_3_);">
        <polygon points="-15.62,88.64 -33.58,88.64 -2.13,34.16 15.84,34.16 "/>
        <polygon points="20.82,88.64 2.85,88.64 34.31,34.16 52.27,34.16 "/>
        <polygon points="57.26,88.64 39.29,88.64 70.74,34.16 88.71,34.16 "/>
        <polygon points="93.69,88.64 75.73,88.64 107.18,34.16 125.15,34.16 "/>
        <polygon points="130.13,88.64 112.16,88.64 143.62,34.16 161.58,34.16 "/>
      </g>
    </g>
    <g style="opacity:0.2;">
      <path d="M120,43.63c0.55,0,1,0.45,1,1v33.54c0,0.55-0.45,1-1,1H8c-0.55,0-1-0.45-1-1V44.63 c0-0.55,0.45-1,1-1H120 M120,40.63H8c-2.21,0-4,1.79-4,4v33.54c0,2.21,1.79,4,4,4h112c2.21,0,4-1.79,4-4V44.63 C124,42.43,122.21,40.63,120,40.63L120,40.63z" style="fill:#424242;"/>
    </g>
  </g>
</svg>
